assets/icons/24px/stroke/arrow-circle-backward-ten-24px.svg

<svg width="24" height="24" viewBox="0 0 24 24" fill="none" xmlns="http://www.w3.org/2000/svg">
<path fill-rule="evenodd" clip-rule="evenodd" d="M7.8865 2.30587C7.50314 1.90831 6.87008 1.89679 6.47252 2.28015L3.80587 4.85152C3.61042 5.03999 3.5 5.29984 3.5 5.57136C3.5 5.84288 3.6104 6.10273 3.80585 6.2912L6.4725 8.86271C6.87005 9.24608 7.50311 9.23458 7.88648 8.83703C8.26985 8.43948 8.25835 7.80642 7.8608 7.42305L6.9776 6.57137L11.5 6.57136C15.4354 6.57136 18.5 9.24909 18.5 13.2857C18.5 17.3223 15.4354 20 11.5 20C7.7054 20 5.12222 17.0681 5.12222 13.2857C5.12222 12.7334 4.6745 12.2857 4.12222 12.2857C3.56993 12.2857 3.12222 12.7334 3.12222 13.2857C3.12222 18.0243 6.45805 22 11.5 22C16.4011 22 20.5 18.5607 20.5 13.2857C20.5 8.01062 16.4011 4.57136 11.5 4.57136L6.97771 4.57137L7.86078 3.71985C8.25834 3.33649 8.26985 2.70343 7.8865 2.30587Z" fill="white"/>
<path fill-rule="evenodd" clip-rule="evenodd" d="M10.1913 10.0381C10.3782 10.1155 10.5 10.2978 10.5 10.5V16.5C10.5 16.7762 10.2761 17 10 17C9.72386 17 9.5 16.7762 9.5 16.5V11.7071L8.85355 12.3536C8.65829 12.5488 8.34171 12.5488 8.14645 12.3536C7.95118 12.1583 7.95118 11.8417 8.14645 11.6465L9.64645 10.1465C9.78945 10.0035 10.0045 9.96068 10.1913 10.0381ZM12.8146 11.3718C12.6283 11.7154 12.5 12.3557 12.5 13.5C12.5 14.6443 12.6283 15.2847 12.8146 15.6282C12.8999 15.7857 12.9906 15.8675 13.0804 15.9157C13.1749 15.9665 13.306 16 13.5 16C13.6816 16 13.8083 15.9637 13.9029 15.9081C13.9963 15.8532 14.0926 15.7594 14.1823 15.5886C14.3732 15.2248 14.5 14.5777 14.5 13.5C14.5 12.4223 14.3732 11.7752 14.1823 11.4114C14.0926 11.2406 13.9963 11.1469 13.9029 11.0919C13.8083 11.0363 13.6816 11 13.5 11C13.306 11 13.1749 11.0335 13.0804 11.0843C12.9906 11.1325 12.8999 11.2143 12.8146 11.3718ZM12.6071 10.2034C12.8876 10.0527 13.194 10 13.5 10C13.8184 10 14.1292 10.065 14.4096 10.2298C14.6912 10.3953 14.9074 10.6411 15.0677 10.9467C15.3768 11.5355 15.5 12.3884 15.5 13.5C15.5 14.6116 15.3768 15.4645 15.0677 16.0534C14.9074 16.3589 14.6912 16.6047 14.4096 16.7702C14.1292 16.935 13.8184 17 13.5 17C13.194 17 12.8876 16.9474 12.6071 16.7967C12.3219 16.6434 12.1001 16.4085 11.9354 16.1048C11.6217 15.5261 11.5 14.6664 11.5 13.5C11.5 12.3336 11.6217 11.474 11.9354 10.8952C12.1001 10.5915 12.3219 10.3566 12.6071 10.2034Z" fill="white"/>
</svg>

<svg width="24" height="24" fill="none" xmlns="http://www.w3.org/2000/svg"><path fill-rule="evenodd" clip-rule="evenodd" d="M7.886 2.306a1 1 0 0 0-1.413-.026L3.806 4.852a1 1 0 0 0 0 1.44l2.667 2.57A1 1 0 1 0 7.86 7.424l-.883-.852H11.5c3.935 0 7 2.678 7 6.715 0 4.036-3.065 6.714-7 6.714-3.795 0-6.378-2.932-6.378-6.714a1 1 0 1 0-2 0C3.122 18.024 6.458 22 11.5 22c4.901 0 9-3.44 9-8.714 0-5.275-4.099-8.715-9-8.715H6.978l.883-.851a1 1 0 0 0 .026-1.414z" fill="#fff"/><path fill-rule="evenodd" clip-rule="evenodd" d="M10.191 10.038a.5.5 0 0 1 .309.462v6a.5.5 0 1 1-1 0v-4.793l-.646.647a.5.5 0 0 1-.708-.707l1.5-1.5a.5.5 0 0 1 .545-.109zm2.624 1.334c-.187.343-.315.984-.315 2.128 0 1.144.128 1.785.315 2.128a.66.66 0 0 0 .265.288c.095.05.226.084.42.084a.775.775 0 0 0 .403-.092.758.758 0 0 0 .28-.32c.19-.363.317-1.01.317-2.088s-.127-1.725-.318-2.089a.758.758 0 0 0-.28-.32A.775.775 0 0 0 13.5 11a.873.873 0 0 0-.42.084.66.66 0 0 0-.265.288zm-.208-1.169c.28-.15.587-.203.893-.203.318 0 .63.065.91.23.281.165.497.411.658.717.309.589.432 1.441.432 2.553 0 1.112-.123 1.964-.432 2.553a1.75 1.75 0 0 1-.658.717c-.28.165-.592.23-.91.23a1.86 1.86 0 0 1-.893-.203 1.656 1.656 0 0 1-.672-.692c-.313-.579-.435-1.439-.435-2.605s.122-2.026.435-2.605c.165-.303.387-.538.672-.692z" fill="#fff"/></svg>
